X:6
T:Unknown Bouree
M:2/4
L:1/8
R:bourree
Z:robin.beech@mcgill.ca
K:G
Dz/E/ FD | Az/G/ FE | Dz/E/ FD | AB2c | Dz/E/ FD | Az/G/ FE | Dz/E/ FD | E4 ::
Az/F/ GA | Bz/G/ AB | cz/A/ Bc | dc BA | Az/F/ GA | Bz/G/ AB | cz/B/ AB | F4 :|
